Newaita-dark/actions/24/stroke-join-bevel.svg

<?xml version="1.0" encoding="UTF-8"?>
<svg xmlns="http://www.w3.org/2000/svg" xmlns:xlink="http://www.w3.org/1999/xlink" width="24pt" height="24pt" viewBox="0 0 24 24" version="1.1">
<g id="surface1">
<path style=" stroke:none;fill-rule:nonzero;fill:rgb(74.117649%,74.117649%,74.117649%);fill-opacity:1;" d="M 10.914062 10.109375 L 10.914062 23.011719 L 16.867188 23.011719 L 16.867188 16.0625 L 20.839844 16.0625 L 20.839844 10.109375 Z M 12.402344 11.597656 L 19.347656 11.597656 L 19.347656 14.574219 L 15.378906 14.574219 L 15.378906 21.523438 L 12.402344 21.523438 Z M 12.402344 11.597656 "/>
<path style=" stroke:none;fill-rule:evenodd;fill:rgb(74.117649%,74.117649%,74.117649%);fill-opacity:1;" d="M 9.921875 1.179688 L 2.976562 6.140625 L 2.976562 23.011719 L 8.929688 23.011719 L 8.929688 10.109375 L 12.898438 7.132812 L 19.84375 7.132812 L 19.84375 1.179688 Z M 10.402344 2.691406 L 18.355469 2.691406 L 18.355469 5.621094 L 11.429688 5.621094 L 7.421875 8.832031 L 7.421875 21.523438 L 4.488281 21.523438 L 4.488281 7.421875 Z M 10.402344 2.691406 "/>
</g>
</svg>

<svg xmlns="http://www.w3.org/2000/svg" width="32" height="32" viewBox="0 0 24 24"><g fill="#bdbdbd"><path d="M10.914 10.11v12.902h5.953v-6.95h3.973V10.11zm1.488 1.488h6.946v2.976h-3.97v6.95h-2.976zm0 0"/><path d="M9.922 1.18L2.977 6.14v16.872H8.93V10.109l3.968-2.976h6.946V1.18zm.48 1.511h7.953v2.93H11.43L7.422 8.832v12.691H4.488V7.422zm0 0" fill-rule="evenodd"/></g></svg>
